archdroid-icon-theme/Archdroid-Brown/categories/scalable/applications-publishing.svg

<svg fill="#795548" height="48" viewBox="0 0 48 48" width="48" xmlns="http://www.w3.org/2000/svg"><path d="m12 4c-2.21 0-3.980469 1.79-3.980469 4l-.019531 32c0 2.21 1.770469 4 3.980469 4h24.019531c2.21 0 4-1.79 4-4v-24l-12-12zm14 3 11 11h-11zm-3 13h2l6.333984 14.666016h-2.800781l-1.199219-2.933594h-6.667968l-1.199219 2.933594h-2.800781zm1 2.640625-2.494141 6.693359h4.988282zm-9.333984 14.693359h18.667968v2.666016h-18.667968z" fill="#795548"/></svg>

<svg fill="#795548" height="48" version="1.1" viewBox="0 0 48 48" width="48" xmlns="http://www.w3.org/2000/svg"><path d="M12 4C9.79 4 8.019531 5.79 8.019531 8L8 40C8 42.21 9.770469 44 11.980469 44L36 44C38.21 44 40 42.21 40 40L40 16 28 4 12 4zM26 7L37 18 26 18 26 7zM23 20L25 20 31.333984 34.666016 28.533203 34.666016 27.333984 31.732422 20.666016 31.732422 19.466797 34.666016 16.666016 34.666016 23 20zM24 22.640625L21.505859 29.333984 26.494141 29.333984 24 22.640625zM14.666016 37.333984L33.333984 37.333984 33.333984 40 14.666016 40 14.666016 37.333984z"/></svg>
